X: 33489
T: Ragtime Annie
R: reel
M: 4/4
K: Dmajor
DFAF B2AF|DFAF B2AF|DFDF B2AF|Ac2A c2B2|ABcA BcBA|AB2A BcBA|ABcd egfe|d6:|
GA|B2B2 BGAB|=cB=cd =c2de|f2f2 fdef|gfga g2GA|B2B2 BGAB|=cB=cd =c2De|f2f2 fdef|gfga g4:|

